source/img/icon-open.svg

<svg width="31" height="19" viewBox="0 0 31 19" fill="none" xmlns="http://www.w3.org/2000/svg">
<path d="M0.0833319 1.7436C0.0833319 1.03319 0.770917 0.458392 1.61729 0.458392L13.966 0.458391C14.3729 0.458391 14.763 0.593798 15.0507 0.834821C15.3384 1.07584 15.5 1.40274 15.5 1.7436C15.5 2.08446 15.3384 2.41136 15.0507 2.65238C14.763 2.8934 14.3729 3.02881 13.966 3.02881L1.61729 3.02881C0.769376 3.02881 0.083332 2.45402 0.0833319 1.7436Z" />
<path d="M0.0831622 9.49995C0.0831621 8.78953 0.770746 8.21474 1.61712 8.21474L29.3825 8.21474C29.7894 8.21474 30.1795 8.35015 30.4672 8.59117C30.7549 8.83219 30.9165 9.15909 30.9165 9.49995C30.9165 9.84081 30.7549 10.1677 30.4672 10.4087C30.1795 10.6498 29.7894 10.7852 29.3825 10.7852L1.61712 10.7852C0.769205 10.7852 0.0831623 10.2091 0.0831622 9.49995Z" />
<path d="M1.61713 15.9711C1.2103 15.9711 0.820127 16.1065 0.532455 16.3475C0.244781 16.5885 0.0831679 16.9154 0.0831679 17.2563C0.0831679 17.5972 0.244781 17.9241 0.532455 18.1651C0.820127 18.4061 1.2103 18.5415 1.61713 18.5415L20.1325 18.5415C20.334 18.5415 20.5335 18.5083 20.7196 18.4437C20.9057 18.3791 21.0748 18.2844 21.2172 18.1651C21.3597 18.0457 21.4726 17.9041 21.5497 17.7481C21.6268 17.5922 21.6665 17.4251 21.6665 17.2563C21.6665 17.0875 21.6268 16.9204 21.5497 16.7645C21.4726 16.6085 21.3597 16.4669 21.2172 16.3475C21.0748 16.2282 20.9057 16.1335 20.7196 16.0689C20.5335 16.0043 20.334 15.9711 20.1325 15.9711L1.61713 15.9711Z"/>
</svg>

<svg width="31" height="19" fill="none" xmlns="http://www.w3.org/2000/svg"><path d="M.083 1.744c0-.71.688-1.286 1.534-1.286h12.349c.407 0 .797.136 1.085.377.287.24.449.568.449.909 0 .34-.162.667-.45.908a1.696 1.696 0 01-1.084.377H1.617C.77 3.029.083 2.454.083 1.744zm0 7.756c0-.71.688-1.285 1.534-1.285h27.765c.407 0 .797.135 1.085.376.288.241.45.568.45.909 0 .34-.162.668-.45.909a1.696 1.696 0 01-1.084.376H1.617C.77 10.785.083 10.21.083 9.5zm1.534 6.471c-.407 0-.797.136-1.085.377-.287.24-.449.567-.449.908 0 .341.162.668.45.91.287.24.677.375 1.084.375h18.515c.202 0 .401-.033.588-.097a1.59 1.59 0 00.497-.279c.143-.12.256-.26.333-.417a1.107 1.107 0 000-.984 1.296 1.296 0 00-.333-.416 1.582 1.582 0 00-.497-.28 1.795 1.795 0 00-.587-.097H1.617z"/></svg>
